X: 80
T: the One-Horned Sheep
Z: Transcribed to abc by Mary Lou Knack
R: jig
M: 6/8
K: G
|: "G"{f}g2G GFG | "C"EGG "G"DGG | "G"{f}g2G GFG | "Am"EAG "D7"FED | "G"{f}g2G GFG |
| "C"EGG "G"DGG | "C"EGG "D7"FGA | "G"BGF G3 :: "G"GBd dBd | "G"GBd d2D | "G"GBd dcB |
| "Am"cdc "D7"A2D | "G"GBd dBd | "G"GBd def | "C"gfe "G"dBG |1 "D7"ABA "G"G3 :|2 "D7"ABc def |]

%%sep 1 1 500

